X: 7098
T: Christmas Cassette
R: three-two
M: 3/2
K: Bminor
z2DE DCDF A2-AA-|ABAG FEFG F4|
z2DE DCDF A2-AA-|1 AGFG FEDC D4:|2 [M:2/2] AGFG F4]|
[M:3/4]|:BA Bc d2|FE FGA2|GA GF ED|CD E<A,E2|
BA Bc d2|FE FGA2|GA GF ED|CE D4:|

